front/public/static/landing/logos/dust/Dust_LogoSquare.svg

<svg fill="none" height="48" viewBox="0 0 48 48" width="48" xmlns="http://www.w3.org/2000/svg"><path d="m36 24h-12v24h12z" fill="#fe9c1a"/><path clip-rule="evenodd" d="m12 36c-3.31371 0-6-2.6863-6-6s2.68629-6 6-6h36v12z" fill="#3b82f6" fill-rule="evenodd"/><path clip-rule="evenodd" d="m0 48v-12h12c3.3137 0 6 2.6863 6 6s-2.6863 6-6 6z" fill="#9fdbff" fill-rule="evenodd"/><path d="m12 24c6.6274 0 12-5.3726 12-12 0-6.62742-5.3726-12-12-12-6.62742 0-12 5.37258-12 12 0 6.6274 5.37258 12 12 12z" fill="#e2f78c"/><path d="m36 24c6.6274 0 12-5.3726 12-12 0-6.62742-5.3726-12-12-12s-12 5.37258-12 12c0 6.6274 5.3726 12 12 12z" fill="#ffc3df"/><path d="m12 0h-12v24h12z" fill="#418b5c"/><path d="m48 0h-24v12h24z" fill="#e14322"/></svg>

<svg width="48" height="48" viewBox="0 0 48 48" fill="none" xmlns="http://www.w3.org/2000/svg">
<path d="M36 24H24V48H36V24Z" fill="#FE9C1A"/>
<path fill-rule="evenodd" clip-rule="evenodd" d="M12 36C8.68629 36 6 33.3137 6 30C6 26.6863 8.68629 24 12 24H48V36H12Z" fill="#3B82F6"/>
<path fill-rule="evenodd" clip-rule="evenodd" d="M0 48V36H12C15.3137 36 18 38.6863 18 42C18 45.3137 15.3137 48 12 48H0Z" fill="#9FDBFF"/>
<path d="M12 24C18.6274 24 24 18.6274 24 12C24 5.37258 18.6274 0 12 0C5.37258 0 0 5.37258 0 12C0 18.6274 5.37258 24 12 24Z" fill="#E2F78C"/>
<path d="M36 24C42.6274 24 48 18.6274 48 12C48 5.37258 42.6274 0 36 0C29.3726 0 24 5.37258 24 12C24 18.6274 29.3726 24 36 24Z" fill="#FFC3DF"/>
<path d="M12 0H0V24H12V0Z" fill="#418B5C"/>
<path d="M48 0H24V12H48V0Z" fill="#E14322"/>
</svg>
